X:1
T:Spring of Souls, 76.76 D
T:Spring of Souls, 76.76 D
T:Ludvig Mathias Lindeman (1812-1887)
T:Public Domain Courtesy of the Cyber Hymnal™
C:Ludvig Mathias Lindeman (1812-1887)
Z:Public Domain
Z:Courtesy of the Cyber Hymnal™
%%score ( 1 2 ) ( 3 4 )
L:1/8
Q:1/4=115
M:none
K:D
V:1 treble 
V:2 treble 
V:3 bass 
V:4 bass 
V:1
 [DA]2 [DF]2 [CF]2 [CE]2 | D2 [B,D]2 [B,G]3 z | [CE]2 E2 (F^G) (Ac) | [DB]4 [CA]3 z | %4
 [EA]2 [DF]2 [B,F]2 [B,E]2 | [A,D]2 D2 [DG]3 z | [DE]2 [CE]2 (F^G) (Ac) | B4 [CA]3 z | %8
 [Dd]2 [Fc]2 [FB]2 [DF]2 | [EA]2 [EG]2 [CF]3 z | [FB]2 [Ec]2 [Dd]2 [DB]2 | [EA]4 [DF]3 z | %12
 [DF]2 [Ed]2 [Ec]2 [Ac]2 | [FB]2 [EB]2 [CA]3 z | [EA]2 (Bc) [Dd]2 D2 | [CE]4 D4 |] x8 |] %17
V:2
 x8 | D2 x6 | x2 E2 D2 E2 | x8 | x8 | x2 D2 x4 | x4 D2 C2 | (F2 E2) x4 | x8 | x8 | x8 | x8 | x8 | %13
 x8 | x2 E2 x D2 x | x4 D4 |] x8 |] %17
V:3
 [F,A,]2 [D,A,]2 [A,,A,]2 [A,,G,]2 | [B,,F,]2 [G,,G,]2 [E,G,]3 z | x8 | %3
 [A,,A,]2 [C,A,]2 [D,A,]2 A,2 | (A,2 ^G,2) [A,,A,]3 z | [C,A,]2 [D,A,]2 [G,,A,]2 [G,,G,]2 | %6
 [A,,G,]2 [A,,F,]2 [B,,G,]3 z | [G,B,]2 [G,A,]2 [F,A,]2 [E,A,]2 | ([D,A,]2 [E,^G,]2) [A,,A,]3 z | %9
 [B,,F,]2 [E,^A,]2 [D,B,]2 [B,,B,]2 | [E,B,]2 [E,B,]2 [F,^A,]3 z | %11
 [D,F,]2 [C,^A,]2 [B,,B,]2 [B,,G,]2 | [C,E,]4 [D,A,]3 z | [B,,B,]2 [^G,B,]2 A,2 [F,A,]2 | %14
 [D,A,]2 [E,^G,]2 [A,,A,]3 z | [A,C]2 [G,B,]2 [F,A,]2 [B,,F,]2 |] [A,,G,]4 [D,F,]4 |] %17
V:4
 x8 | x8 | x8 | x6 (C,A,,) | E,4 x4 | x8 | x8 | x8 | x8 | x8 | x8 | x8 | x8 | x4 A,2 x2 | x8 | %15
 x8 |] x8 |] %17

